X:4
T:Aux marches du palais
C:Paroles et musiques traditionnelles
Z:Transcrit et/ou corrigé par Michel BELLON - 2006-04-28
Z:Pour toute observation mailto:galouvielle@free.fr
M:6/8
L:1/8
K:G
z3 z2B | "G"B2B "C"c2B | "G"B3 z2A | "D7"A2A "G"B2A | "D7"A3 z2D | "Em"G2G G2A | "D7"G>FE F2D | A2A A2B | A3 "G"G3 |]

%%footer $D   Galouvielle-MBe 2006 \n-- (--)
